X: 1
T:Mr. Ed Bolick
C: 1999 Harry Bolick -  harry@bolick.net - www.bolick.net
R: Slow Waltz
O:United States
A:Brooklyn, New York
M:3/4
L:1/8
Q:350
K:D
|: "Bm" B,3 D EF |  BA F2 ED  | "Em" E3 F AB  | "F#m" cB AF ED |
"Bm" B,3 D EF |  BA F2 ED  | "Em" E3 F "A" BA |"Bm"  B4 B z :|
|: "Bm" BA F2 B2 |  fe d2 B2 | "Em" ed B2 A2  |  "Bm" BA  "A" F E2 z   | 
 "Bm" B,3 D FA  | BA F2 ED |  "Em" E3 F "A" BA  |"Bm" B6 :|
